img/svg/circle3.svg

<svg width="120" height="80" viewBox="0 0 120 80" fill="none" xmlns="http://www.w3.org/2000/svg">
<path d="M120 0L112 13.3333L120 26.6667L112 40L120 53.3333L112 66.6667L120 80L-3.49691e-06 80L8 66.6667L-2.33127e-06 53.3333L8 40L-1.16564e-06 26.6667L8 13.3333L0 -5.24537e-06L120 0Z" fill="#CF2D1E"/>
<path d="M67.0588 19.9998C74.206 19.9998 80 25.7937 80 32.9409C80 40.0881 74.206 45.8821 67.0588 45.8821C66.4091 45.8821 65.8823 46.4088 65.8823 47.0586C65.8823 47.6361 66.2985 48.1165 66.8473 48.2161L67.0588 48.2351H80V59.9998H67.0588C59.9116 59.9998 54.1176 54.2058 54.1176 47.0586C54.1176 39.9114 59.9116 34.1174 67.0588 34.1174C67.7086 34.1174 68.2353 33.5907 68.2353 32.9409C68.2353 32.3634 67.8191 31.883 67.2703 31.7834L67.0588 31.7645H52.9412C52.3636 31.7645 51.8833 32.1806 51.7836 32.7295L51.7647 32.9409V59.9998H40V32.9409C40 25.968 45.5148 20.2832 52.4207 20.01L52.9412 19.9998H67.0588Z" fill="white"/>
</svg>

<svg width="120" height="80" fill="none" xmlns="http://www.w3.org/2000/svg"><path d="M120 0l-8 13.333 8 13.334L112 40l8 13.333-8 13.334L120 80H0l8-13.333-8-13.334L8 40 0 26.667l8-13.334L0 0h120z" fill="#CF2D1E"/><path d="M67.059 20C74.206 20 80 25.794 80 32.94c0 7.148-5.794 12.942-12.941 12.942a1.177 1.177 0 00-.212 2.334l.212.02H80V60H67.059c-7.147 0-12.941-5.794-12.941-12.941 0-7.148 5.794-12.942 12.94-12.942a1.176 1.176 0 00.212-2.334l-.211-.018H52.94c-.577 0-1.058.416-1.157.965l-.02.21V60H40V32.94c0-6.972 5.515-12.657 12.42-12.93l.521-.01H67.06z" fill="#fff"/></svg>
